packages/assets/static/images/icons/motorcycle.svg

<svg width="24" height="24" viewBox="0 0 24 24" xmlns="http://www.w3.org/2000/svg">
<g clip-path="url(#clip0_2076_2380)">
<path d="M19.4956 10.873C19.4421 10.873 19.3896 10.873 19.3371 10.873L19.009 9.7668C19.1693 9.75274 19.3315 9.7443 19.4956 9.7443C19.7939 9.7443 20.0801 9.62577 20.2911 9.41479C20.5021 9.20381 20.6206 8.91767 20.6206 8.6193C20.6206 8.32093 20.5021 8.03478 20.2911 7.8238C20.0801 7.61282 19.7939 7.4943 19.4956 7.4943H18.3359L17.5746 4.92461C17.505 4.69266 17.3624 4.48936 17.168 4.34495C16.9736 4.20054 16.7378 4.12271 16.4956 4.12305H13.4956C13.1972 4.12305 12.9111 4.24157 12.7001 4.45255C12.4891 4.66353 12.3706 4.94968 12.3706 5.24805C12.3706 5.54642 12.4891 5.83256 12.7001 6.04354C12.9111 6.25452 13.1972 6.37305 13.4956 6.37305H15.6518L15.9856 7.49805H14.2456C12.4231 7.49805 10.9343 7.93117 9.94058 8.75149C9.77706 8.88255 9.58018 8.96534 9.37213 8.99052C9.16409 9.0157 8.95314 8.98226 8.76308 8.89399C7.53214 8.33149 3.40152 6.55024 2.98339 6.37305L2.48933 6.16305C2.48933 6.16305 2.09558 5.99805 1.87058 5.99805C1.61042 5.998 1.3583 6.08812 1.15712 6.25307C0.955936 6.41801 0.818138 6.64758 0.767181 6.90269C0.716225 7.15781 0.75526 7.4227 0.87764 7.65227C1.00002 7.88184 1.19818 8.0619 1.43839 8.1618C1.59964 8.23024 5.53245 9.89617 7.83214 10.9424C8.27391 11.1425 8.7534 11.2458 9.23839 11.2452C10.0167 11.2478 10.7717 10.9797 11.374 10.4868C11.9121 10.0434 12.8346 9.78555 13.9887 9.7518C12.7531 10.9601 11.9493 12.5414 11.7012 14.2518H8.85308C8.57926 13.1913 7.92807 12.2671 7.02157 11.6524C6.11507 11.0377 5.01549 10.7747 3.92895 10.9127C2.84241 11.0507 1.8435 11.5802 1.11947 12.402C0.395428 13.2239 -0.00402832 14.2815 -0.00402832 15.3768C-0.00402832 16.4721 0.395428 17.5297 1.11947 18.3516C1.8435 19.1734 2.84241 19.7029 3.92895 19.8409C5.01549 19.9789 6.11507 19.7159 7.02157 19.1012C7.92807 18.4865 8.57926 17.5623 8.85308 16.5018H12.7456C13.0439 16.5018 13.3301 16.3833 13.5411 16.1723C13.7521 15.9613 13.8706 15.6752 13.8706 15.3768C13.8709 14.357 14.1485 13.3564 14.6736 12.4822C15.1988 11.608 15.9517 10.893 16.8518 10.4137L17.18 11.5199C16.248 12.0822 15.5514 12.9631 15.2192 13.9995C14.887 15.036 14.9417 16.1577 15.3732 17.157C15.8047 18.1562 16.5837 18.9652 17.5659 19.434C18.5481 19.9029 19.667 19.9999 20.7152 19.7071C21.7635 19.4143 22.6701 18.7514 23.2671 17.8414C23.8641 16.9313 24.1111 15.8358 23.9622 14.7576C23.8134 13.6794 23.2788 12.6917 22.4575 11.9775C21.6363 11.2633 20.584 10.8709 19.4956 10.873ZM4.49558 16.498H6.44277C6.19511 16.927 5.81285 17.2622 5.35525 17.4518C4.89765 17.6413 4.39029 17.6746 3.91187 17.5464C3.43344 17.4182 3.01068 17.1357 2.70916 16.7428C2.40764 16.3498 2.24421 15.8684 2.24421 15.373C2.24421 14.8777 2.40764 14.3963 2.70916 14.0033C3.01068 13.6104 3.43344 13.3279 3.91187 13.1997C4.39029 13.0715 4.89765 13.1048 5.35525 13.2943C5.81285 13.4839 6.19511 13.8191 6.44277 14.248H4.49558C4.19721 14.248 3.91106 14.3666 3.70008 14.5776C3.4891 14.7885 3.37058 15.0747 3.37058 15.373C3.37058 15.6714 3.4891 15.9576 3.70008 16.1685C3.91106 16.3795 4.19721 16.498 4.49558 16.498ZM19.4956 17.623C19.056 17.6225 18.6263 17.4933 18.2594 17.2513C17.8925 17.0092 17.6045 16.6651 17.431 16.2612C17.2575 15.8574 17.206 15.4115 17.2831 14.9788C17.3601 14.5461 17.5621 14.1454 17.8643 13.8262L18.4165 15.6927C18.4855 15.9254 18.6278 16.1295 18.8223 16.2746C19.0167 16.4198 19.2529 16.4981 19.4956 16.498C19.6038 16.4978 19.7114 16.4824 19.8153 16.4521C19.957 16.4102 20.0891 16.3407 20.204 16.2477C20.3188 16.1547 20.4143 16.04 20.4848 15.9101C20.5553 15.7802 20.5996 15.6377 20.615 15.4907C20.6304 15.3437 20.6167 15.1951 20.5746 15.0534L20.0206 13.1859C20.5557 13.315 21.0248 13.6358 21.3393 14.0876C21.6538 14.5394 21.7917 15.0908 21.7271 15.6374C21.6624 16.1841 21.3996 16.688 20.9883 17.0539C20.5771 17.4199 20.046 17.6223 19.4956 17.623Z"/>
</g>
<defs>
<clipPath id="clip0_2076_2380">
<rect width="24" height="24"/>
</clipPath>
</defs>
</svg>

<svg viewBox="0 0 24 24" xmlns="http://www.w3.org/2000/svg" aria-hidden="true" fill="currentColor" height="24px" width="24px"><g clip-path="url(#a)"><path d="M19.496 10.873h-.159l-.328-1.106q.24-.022.487-.023a1.125 1.125 0 0 0 0-2.25h-1.16l-.761-2.57a1.125 1.125 0 0 0-1.08-.801h-3a1.125 1.125 0 1 0 0 2.25h2.157l.334 1.125h-1.74c-1.823 0-3.312.433-4.305 1.253a1.13 1.13 0 0 1-1.178.143c-1.23-.563-5.361-2.344-5.78-2.521l-.494-.21s-.393-.165-.618-.165a1.125 1.125 0 0 0-.433 2.164c.162.068 4.094 1.734 6.394 2.78.442.2.921.304 1.406.303a3.35 3.35 0 0 0 2.136-.758c.538-.444 1.46-.701 2.615-.735a7.88 7.88 0 0 0-2.288 4.5H8.853a4.5 4.5 0 1 0 0 2.25h3.893a1.125 1.125 0 0 0 1.125-1.125 5.63 5.63 0 0 1 2.98-4.963l.329 1.106a4.5 4.5 0 1 0 2.316-.647m-15 5.625h1.947a2.25 2.25 0 1 1 0-2.25H4.496a1.125 1.125 0 0 0 0 2.25m15 1.125a2.25 2.25 0 0 1-1.632-3.797l.552 1.867a1.125 1.125 0 0 0 2.159-.64l-.554-1.867a2.25 2.25 0 0 1-.525 4.437"/></g><defs><clipPath id="a"><path d="M0 0h24v24H0z"/></clipPath></defs></svg>
